!!!OTL: Xiaoxiao menlou
!!!ARE: Asia, China,ÿHebei, Shanhaigua
!! IV, 91
!!!SCT: C1647
!!!YEM: Copyright 1995, estate of Helmut Schaffrath.
**kern
*ICvox
*Ivox
!! Mixed meters:  2/4; 3/4
*M3/4
*k[b-e-]
*B-:
{4gg
8.dd
16ff
=1
4gg
8.ccc
16aa
=2
8gg
8aa
4gg}
=3
{8ddd
16ddd
16fff
4.ddd
8gg
=4
*M2/4
4fff
4ddd
=5
8ddd
8ddd
8ddd
8gg}
=6
{8r
8ddd
8bbn
8ccc
=7
8.ddd
16fff
8ddd
8ccc
=8
8.bb-
16ccc
4ddd}
=9
{8ddd
8ddd
8ddd
8gg
=10
8ddd
4.gg
=11
8fff
4.ddd}
=12
{4fff
8.ddd
16ddd
=13
4fff
4ddd
=14
8ddd
8ddd
4ddd}
=15
{8ddd
8ddd
8ddd
8aa
=16
8.gg
16bb-
8ccc
8ddd
=17
8ccc
8aa
4gg}
=18
{8.gg
16gg
8gg
8ccc
=19
8aa
8gg
8gg
8cc
=20
4gg
4gg
=21
4bb-}
{8r
16gg
16gg
=22
8gg
16gg
16bb-
8.dd
16ff
=23
4gg
4gg}
=24
{4r
4bb-
=25
8ddd
8ccc
8bb-
8ccc
=26
8ddd
8ddd
8ddd
8aa
=27
4gg
8gg
8cc
=28
2gg}
=29
{16.ddd
32ddd
16.ddd
32ccc
8ddd
8fff
=30
8.ddd
16ccc
8bb-
8gg}
=31
{4ddd
8ccc
8aa
=32
8gg
4gg
8gg
=33
2gg}
==
!!!AGN: Xiaodiao. Douqu
!!!AMT: irregular
!!!AIN: vox
!!!EED: Helmut Schaffrath
!!!EEV: 1.0
*-
